X:1
T:Erbarme Dich guitar edit.
T:Bach arr Dempsey
%%score ( 1 2 )
L:1/8
M:12/8
K:G
V:1 treble-8 nm="Guitar"
V:2 treble-8 
V:1
 z8 z3[Q:1/4=48]"^Largo" B |:[Q:1/8=80]{/ef} g>fe{/f} e>^de e3- e2 e | %2
 c'b/c'/d'- d'>c'b{/b} a3- ac'a | g/=fc'/a f/ec'/a e/^db/c'- c'>ba | %4
 gf/g/a- a>gf{/e} e/ ^d4 B/d/f/ | %5
 a/4g/4f<e^d/4e/4 f/4e/4d<=cB/4c/4 c/4B/4A<^dc/4B/4 c/4B/4A<fB/4A/4 | %6
 B/4A/4^G/=FE/=d/4c/4 d/4c/4B/AG/=f/4e/4 f/4e/4d/cB/b/4a/4 b/4a/4^g/fe/b/ | %7
 c'/4d'/4e'd'/4c'/4d'/4c'/4b/ a/4b/4c'b/4a/4b/4a/4g/ =f/4g/4ag/4f/4g/4f/4e/ ^d/4e/4^fe/4d/4e/4d/4^c/ | %8
 B3/2^c/4^d/4e/4f/4g/4f/4 agf e6!fine! ||{/ef} g>fe{/f} e>^de e3- e2 e | %10
 c'b/c'/d'- d'>c'b{/b} a3- ac'a |{/g} =f>c'a{/f} e>c'a{/e} ^da/b/c'- c'>ba | %12
 gf/g/a- a>gf{/e} ^d3- d2 [Ad] |{/=de} =f>ed ^g>ab"^CV........." ba/a/e{/d} c^de | %14
"^CII.........."{/ef} g>fe ^a>b^c' c'b/b/f{/e} ddf | %15
"^CVII....................................."{/b^c'} d'>c'b{/c'} b>^ab b3 =agf | %16
 g2 e e^da- ag/b/f- fe/g/=d |{/d} c>ge{/c} B>ge{/B} ^Ae/f/g- g>fe | %18
 d3/2^c/4d/4e e>dc ^A3- A/B/^c/f/^a/^c'/ | %19
 e'/4d'/4^c'/b!1!^a/b/ !4!c'/4b/4^a/gf/g/{/b} [^ca]3- [ca]2 z | %20
 a/4g/4f/e^d/e/ f/4e/4d/cB/c/{/e} [FBd]3- [FBd]2 z | %21
 g/4a/4ba/4g/4a/4g/4f/ e/4f/4gf/4e/4f/4e/4d/ c/4d/4ed/4c/4d/4c/4B/ ^A/4B/4^cB/4A/4B/4A/4^G/ | %22
 F3/2^G/4^A/4B/4^c/4d/4c/4 [Be][Bd][F^Ac] [BB]3- [^DBB]2 z :| %23
V:2
 z8 z3 E |: [EB]EE DDD [CGc]CC [B,^G=d]B,B, | !1![Ae]AA [Bd^g]BB [ce]Ac ECE | %3
 AAA GGG [Fc]FF [^D^f]DD | [E,Be]E,E, [Cce]CC [B,B]FA A^DF | [B,^d]^cF B,B,F [B,^D]B,B, B,B,B, | %6
 EA,B, ^GCB, [EGd]EE [EGd]EE | AA,A, [Ace]A,A, [Ac]A,A, AA,A, | %8
 G[FA]E BB,B [EB][A^df][Beg] [Adf][Beg][E,dfa] || [EB]EE DDD [CGc]CC [B,^G=d]B,B, | %10
 [Ae]AA [Bd^g]BB [ce]Ac ECE | AAA GGG [Fc]FF [^D^f]DD | [E,Be]E,E, [Cce]CC [FB]GA ^DEF | %13
 [B,^Gd][EGd][EG] [EB][EB][EB] [EAc][Ec][DB] EF=G | %14
 [F^c][Fc][Fc] !1![Fc][Fc][Fe] [B,Fd][DB][E^A] [FB][^GB][Ac] | %15
 [Bdf]BB [Ad]AA [Gd][G^c][GB] [F^d]FF | [EB]EE [FA]FF [GBe]EG BGB | %17
 EEE [DE][DE][DE] E[E^c][Ec] [^A,Ec][E^A][EA] | [FB]BB [GB]GG [^CF]CE E^A,C | %19
 !1![F^a]^G!1!^c !2!!3![Fe][FB][Fc] FFF FFF | [B,^d]G[FA] [FBd][FB]F B,B,B, B,B,B, | %21
 [EB]E,E, [EB]E,E, [EG]E,E, EE,E, | D[^A,E]B, FFF, [B,F]DF, =A,B,E :| %23

